X:80
T:Eavesdropper
R:Jig
C:Trad
M:6/8
L:1/8
K:G
 |:GBB BAG | Bdd dBG | cee dBG | BAA ABA |
 |GBB BAG | Bdd dBG | cee dBG |1 ABA G2D:|2 ABA G2d|
 |:gfg afd | efg d2 B | cee dBG | BAA Adf |
 |gab afd | efg dBG | cee dBG |1 ABA G2d:|2 ABA G2D|
